raw/spot/spot-no-store.svg

<svg width="80" height="80" viewBox="0 0 80 80" fill="none" xmlns="http://www.w3.org/2000/svg">
<path fill-rule="evenodd" clip-rule="evenodd" d="M9.76075 12.6977C10.3166 11.0835 11.8356 10 13.5428 10H61.4572C63.1644 10 64.6834 11.0835 65.2393 12.6977L68.5641 22.3538C68.8527 23.1918 69 24.072 69 24.9583V25.5739C69 32.0501 64.1643 37.3 56.9655 37.3C56.7347 37.3 56.5073 37.2926 56.2833 37.2784C50.9948 36.9423 43.5423 36.9058 38.256 37.2737C38.0081 37.291 37.7561 37.3 37.5 37.3C37.0187 37.3 36.5517 37.2682 36.0998 37.2096C31.0457 36.5547 24.3564 36.5185 19.3075 37.2119C18.8919 37.269 18.4671 37.3 18.0345 37.3C10.8357 37.3 6 32.0501 6 25.5739V24.9583C6 24.072 6.14729 23.1918 6.43586 22.3538L9.76075 12.6977Z" fill="#E3E7F5"/>
<path d="M9.5 63V33H65.5V63C65.5 67.4183 61.9183 71 57.5 71H17.5C13.0817 71 9.5 67.4183 9.5 63Z" fill="#E3E7F5"/>
<path d="M29.5 58C29.5 55.7909 31.2909 54 33.5 54H41.5C43.7091 54 45.5 55.7909 45.5 58V71H29.5V58Z" fill="#D3D8EA"/>
<path fill-rule="evenodd" clip-rule="evenodd" d="M6.00001 25.5742C6.00001 31.2493 11.351 36.1003 18.0345 36.1003C19.8879 36.1003 21.6444 35.2833 23.1413 34.2073C24.6295 33.1376 25.7618 31.8828 26.3411 31.1772L26.3412 31.1771C27.0628 30.2983 28.4298 30.3366 29.1093 31.2316L29.1095 31.2317C30.2354 32.7153 33.3026 36.1003 37.5 36.1003C41.6611 36.1003 44.7122 32.7735 45.8637 31.267C46.5693 30.3437 47.9887 30.3488 48.6884 31.2753C49.8279 32.784 52.8394 36.1003 56.9655 36.1003C63.649 36.1003 69 31.2493 69 25.5742H71.4C71.4 32.8516 64.6796 38.5003 56.9655 38.5003C52.2096 38.5003 48.8069 35.1918 47.2701 33.3474C45.7176 35.1903 42.2806 38.5003 37.5 38.5003C32.6764 38.5003 29.2202 35.1306 27.6865 33.2957C26.9691 34.1019 25.89 35.1873 24.5421 36.1561C22.8309 37.3861 20.5858 38.5003 18.0345 38.5003C10.3204 38.5003 3.60001 32.8516 3.60001 25.5742H6.00001ZM46.7731 32.7216L46.7732 32.7218Z" fill="white"/>
<path d="M61.498 70.4961C68.6777 70.4961 74.498 64.6758 74.498 57.4961C74.498 50.3164 68.6777 44.4961 61.498 44.4961C54.3183 44.4961 48.498 50.3164 48.498 57.4961C48.498 64.6758 54.3183 70.4961 61.498 70.4961Z" stroke="#0066FF" stroke-width="3.5"/>
<path d="M54.7734 57.4961H68.2217" stroke="#0066FF" stroke-width="3.4"/>
</svg>

<svg width="80" height="80" viewBox="0 0 80 80" fill="none" xmlns="http://www.w3.org/2000/svg"><path fill-rule="evenodd" clip-rule="evenodd" d="M9.76 12.698A4 4 0 0 1 13.544 10h47.914a4 4 0 0 1 3.782 2.698l3.325 9.656c.289.838.436 1.718.436 2.604v.616C69 32.05 64.164 37.3 56.965 37.3c-.23 0-.458-.007-.682-.022-5.288-.336-12.74-.372-18.027-.004a10.856 10.856 0 0 1-2.156-.064c-5.054-.655-11.744-.691-16.793.002-.415.057-.84.088-1.272.088C10.835 37.3 6 32.05 6 25.574v-.616a8 8 0 0 1 .436-2.604l3.325-9.656z" fill="#E3E7F5"/><path d="M9.5 63V33h56v30a8 8 0 0 1-8 8h-40a8 8 0 0 1-8-8z" fill="#E3E7F5"/><path d="M29.5 58a4 4 0 0 1 4-4h8a4 4 0 0 1 4 4v13h-16V58z" fill="#D3D8EA"/><path fill-rule="evenodd" clip-rule="evenodd" d="M6 25.574C6 31.25 11.351 36.1 18.035 36.1c1.853 0 3.61-.817 5.106-1.893 1.489-1.07 2.62-2.324 3.2-3.03.722-.879 2.089-.84 2.768.055 1.126 1.483 4.194 4.868 8.391 4.868 4.161 0 7.212-3.327 8.364-4.833.705-.923 2.125-.918 2.824.008 1.14 1.509 4.151 4.825 8.277 4.825C63.65 36.1 69 31.25 69 25.574h2.4c0 7.278-6.72 12.926-14.435 12.926-4.755 0-8.158-3.308-9.695-5.153-1.552 1.843-4.99 5.153-9.77 5.153-4.824 0-8.28-3.37-9.814-5.204a19.667 19.667 0 0 1-3.144 2.86c-1.711 1.23-3.956 2.344-6.508 2.344C10.32 38.5 3.6 32.852 3.6 25.574H6zm40.773 7.148z" fill="#fff"/><path d="M61.498 70.496c7.18 0 13-5.82 13-13s-5.82-13-13-13-13 5.82-13 13 5.82 13 13 13z" stroke="#06F" stroke-width="3.5"/><path d="M54.773 57.496h13.449" stroke="#06F" stroke-width="3.4"/></svg>
